X:1574
T:The Boys From Scart
C:(Collected from F. O'Neill)
M:C|
K:G
dc|BGBd BGBd|gfge dBGB|ecdB cABG|EAAB A2 dc|
BGBd BGBd|gfge dBGB|ecdB cABG|D2 G2 G2 :|
|:z2|dg 3agfg dg 3agfg|dgba gfed|\
ea 3baga ea 3baga|eaaf gfef|
dg 3agfg dg 3agfg|dgba gfef|dfaf gfef|g2 gf g2 :|
